domfk/img/advantages/icon-4.svg

<svg width="38" height="28" viewBox="0 0 38 28" fill="none" xmlns="http://www.w3.org/2000/svg">
<path d="M26.7833 15.8833C29.0667 17.4333 30.6667 19.5333 30.6667 22.3333V27.3333H37.3333V22.3333C37.3333 18.7 31.3833 16.55 26.7833 15.8833Z" fill="#333333"/>
<path d="M24 14.0001C27.6833 14.0001 30.6667 11.0167 30.6667 7.33341C30.6667 3.65008 27.6833 0.666748 24 0.666748C23.2167 0.666748 22.4833 0.833414 21.7833 1.06675C23.1667 2.78341 24 4.96675 24 7.33341C24 9.70008 23.1667 11.8834 21.7833 13.6001C22.4833 13.8334 23.2167 14.0001 24 14.0001Z" fill="#333333"/>
<path d="M14 14.0001C17.6834 14.0001 20.6667 11.0167 20.6667 7.33341C20.6667 3.65008 17.6834 0.666748 14 0.666748C10.3167 0.666748 7.33337 3.65008 7.33337 7.33341C7.33337 11.0167 10.3167 14.0001 14 14.0001ZM14 4.00008C15.8334 4.00008 17.3334 5.50008 17.3334 7.33341C17.3334 9.16675 15.8334 10.6667 14 10.6667C12.1667 10.6667 10.6667 9.16675 10.6667 7.33341C10.6667 5.50008 12.1667 4.00008 14 4.00008Z" fill="#333333"/>
<path d="M14 15.6667C9.55002 15.6667 0.666687 17.9001 0.666687 22.3334V27.3334H27.3334V22.3334C27.3334 17.9001 18.45 15.6667 14 15.6667ZM24 24.0001H4.00002V22.3501C4.33335 21.1501 9.50002 19.0001 14 19.0001C18.5 19.0001 23.6667 21.1501 24 22.3334V24.0001Z" fill="#333333"/>
</svg>

<svg width="38" height="28" fill="none" xmlns="http://www.w3.org/2000/svg"><path d="M26.783 15.883c2.284 1.55 3.884 3.65 3.884 6.45v5h6.666v-5c0-3.633-5.95-5.783-10.55-6.45zM24 14a6.665 6.665 0 006.667-6.667A6.665 6.665 0 0024 .667c-.783 0-1.517.166-2.217.4a9.966 9.966 0 010 12.533c.7.233 1.434.4 2.217.4zm-10 0a6.665 6.665 0 006.667-6.667A6.665 6.665 0 0014 .667a6.665 6.665 0 00-6.667 6.666A6.665 6.665 0 0014 14zm0-10c1.833 0 3.333 1.5 3.333 3.333 0 1.834-1.5 3.334-3.333 3.334a3.343 3.343 0 01-3.333-3.334C10.667 5.5 12.167 4 14 4zm0 11.667C9.55 15.667.667 17.9.667 22.333v5h26.666v-5c0-4.433-8.883-6.666-13.333-6.666zM24 24H4v-1.65C4.333 21.15 9.5 19 14 19s9.667 2.15 10 3.333V24z" fill="#333"/></svg>
